icon-svg/polestar.svg

<svg xmlns="http://www.w3.org/2000/svg" fill="#44739e" viewBox="0 0 24 24"><path d="M11.905 12.177H2.529l-.354.353 6.212 1.27 1.573.322.014.064L11.64 22l.265-.442ZM9.91 13.952l-7.421-1.516.1-.105h8.935zm11.902-2.482-7.87-1.592-.013-.064L12.347 2l-.354.442v9.38h9.467l.367-.35zm-.414.2H12.37l1.623-1.619 7.51 1.519z"/></svg>

<?xml version="1.0" encoding="UTF-8"?>
<svg width="24px" fill="#44739e" height="24px" viewBox="0 0 24 24" version="1.1" xmlns="http://www.w3.org/2000/svg" xmlns:xlink="http://www.w3.org/1999/xlink">
            <path d="M 11.905,12.177 H 2.549 2.529 v 0 0 L 2.175,12.53 v 0 L 8.387,13.8 9.96,14.122 9.974,14.186 11.64,22 11.905,21.558 Z m -1.995,1.775 -7.421,-1.516 0.1,-0.105 h 8.935 z M 21.812,11.47 v 0 L 13.942,9.878 13.929,9.814 12.347,2 11.993,2.442 v 9.38 h 9.467 l 0.367,-0.35 z m -0.414,0.2 H 12.37 l 1.623,-1.619 7.51,1.519 z"/>

</svg>
